outputs/icons/charts/chart_pie_round.svg

<svg xmlns="http://www.w3.org/2000/svg" width="1200" height="1200" fill="none"><path fill="#000" d="M536.265 101.546c7.33-.928 13.735 4.859 13.735 12.247v972.412c0 7.39-6.405 13.175-13.735 12.25C289.439 1067.205 100 855.775 100 600c0-255.776 189.439-467.206 436.265-498.454m128.97.011c-7.33-.934-13.735 4.854-13.735 12.246V537c0 6.905 5.595 12.5 12.5 12.5h422.2c7.39 0 13.18-6.4 12.245-13.735-28.695-225.964-207.73-405.479-433.21-434.208M664 650.5c-6.905 0-12.5 5.595-12.5 12.5v423.2c0 7.39 6.405 13.18 13.735 12.245 225.935-28.715 404.535-208.235 433.215-434.21.93-7.335-4.86-13.735-12.25-13.735z"/></svg>

<svg width="1200" height="1200" viewBox="0 0 1200 1200" fill="none" xmlns="http://www.w3.org/2000/svg"><path d="M536.265 101.546C543.595 100.618 550 106.405 550 113.793V1086.205C550 1093.595 543.595 1099.38 536.265 1098.455C289.439 1067.205 100 855.775 100 600C100 344.224 289.439 132.794 536.265 101.546ZM665.235 101.557C657.905 100.623 651.5 106.411 651.5 113.803V537C651.5 543.905 657.095 549.5 664 549.5H1086.2C1093.59 549.5 1099.38 543.1 1098.445 535.765C1069.75 309.801 890.715 130.286 665.235 101.557ZM664 650.5C657.095 650.5 651.5 656.095 651.5 663V1086.2C651.5 1093.59 657.905 1099.38 665.235 1098.445C891.17 1069.73 1069.77 890.21 1098.45 664.235C1099.38 656.9 1093.59 650.5 1086.2 650.5H664Z" fill="black"/></svg>
